contributed-vectors/smash_hit.svg

<?xml version="1.0" encoding="UTF-8" standalone="no"?>
<svg
   sodipodi:docname="smash_hit.svg"
   inkscape:version="1.2 (dc2aedaf03, 2022-05-15)"
   version="1.1"
   id="svg2"
   viewBox="0 0 192 192"
   height="192"
   width="192"
   inkscape:export-filename="/home/jphilippe/inkscape/icônes/delta-github/png/aib.png"
   inkscape:export-xdpi="96"
   inkscape:export-ydpi="96"
   xmlns:inkscape="http://www.inkscape.org/namespaces/inkscape"
   xmlns:sodipodi="http://sodipodi.sourceforge.net/DTD/sodipodi-0.dtd"
   xmlns="http://www.w3.org/2000/svg"
   xmlns:svg="http://www.w3.org/2000/svg"
   xmlns:rdf="http://www.w3.org/1999/02/22-rdf-syntax-ns#"
   xmlns:cc="http://creativecommons.org/ns#"
   xmlns:dc="http://purl.org/dc/elements/1.1/">
  <sodipodi:namedview
     inkscape:document-rotation="0"
     inkscape:window-maximized="1"
     inkscape:window-y="0"
     inkscape:window-x="1920"
     inkscape:window-height="1022"
     inkscape:window-width="1680"
     units="px"
     showgrid="false"
     inkscape:current-layer="layer1"
     inkscape:document-units="px"
     inkscape:cy="104.49999"
     inkscape:cx="118.24999"
     inkscape:zoom="2.0000001"
     inkscape:pageshadow="2"
     inkscape:pageopacity="0.0"
     borderopacity="1.0"
     bordercolor="#666666"
     pagecolor="#ffffff"
     id="base"
     inkscape:snap-bbox="false"
     inkscape:object-paths="true"
     inkscape:snap-nodes="true"
     showguides="true"
     inkscape:guide-bbox="true"
     inkscape:snap-object-midpoints="true"
     inkscape:snap-center="true"
     inkscape:snap-global="true"
     inkscape:snap-intersection-paths="true"
     inkscape:snap-smooth-nodes="true"
     inkscape:snap-midpoints="true"
     inkscape:showpageshadow="0"
     inkscape:pagecheckerboard="0"
     inkscape:deskcolor="#d1d1d1">
    <inkscape:grid
       type="xygrid"
       id="grid1015" />
  </sodipodi:namedview>
  <defs
     id="defs4" />
  <metadata
     id="metadata7">
    <rdf:RDF>
      <cc:Work
         rdf:about="">
        <dc:format>image/svg+xml</dc:format>
        <dc:type
           rdf:resource="http://purl.org/dc/dcmitype/StillImage" />
        <dc:title />
      </cc:Work>
    </rdf:RDF>
  </metadata>
  <g
     transform="translate(0,-860.36216)"
     id="layer1"
     inkscape:groupmode="layer"
     inkscape:label="Calque 1">
    <path
       id="rect985"
       style="fill:#9ad2ff;fill-opacity:1;fill-rule:evenodd;stroke:none;stroke-opacity:1"
       d="m 29.5,879.86218 h 133 c 5.54,0 10,4.46 10,10 v 133.00002 c 0,5.54 -4.46,10 -10,10 h -133 c -5.54,0 -10,-4.46 -10,-10 V 889.86218 c 0,-5.54 4.46,-10 10,-10 z" />
    <path
       style="fill:#54758c;fill-opacity:1"
       d="M 145 19.5 L 119.67773 63.816406 A 40 40 0 0 0 113.46484 60.070312 L 120 47 L 111.03125 58.958984 A 40 40 0 0 0 96 56 A 40 40 0 0 0 93.591797 56.083984 L 85 20 L 86 53 L 77 56 L 55 20 L 73.337891 63.091797 A 40 40 0 0 0 61.857422 75.253906 L 20 52 L 58.886719 81.166016 A 40 40 0 0 0 57.15625 86.644531 L 20 82 L 52 92 L 53 97 L 56.035156 97 A 40 40 0 0 0 59.503906 112.24805 L 20 132 L 62.5 117.83398 A 40 40 0 0 0 71.869141 127.83984 L 40 172 L 76.517578 130.91797 A 40 40 0 0 0 83.931641 134.12305 L 82 147 L 86.841797 134.89453 A 40 40 0 0 0 96 136 A 40 40 0 0 0 102.46484 135.45898 L 104.5 172.5 L 109.5 172.5 L 103.36719 135.29102 A 40 40 0 0 0 110.56836 133.24805 L 130 172.5 L 140 172.5 L 115.32812 130.96875 A 40 40 0 0 0 122.78711 125.64453 L 164.76172 172.23633 C 167.13747 171.69012 169.17997 170.3037 170.57031 168.40234 L 123.58594 124.94141 A 40 40 0 0 0 134.24219 107.70703 L 160 112 L 135.23438 103.74414 A 40 40 0 0 0 136 96 A 40 40 0 0 0 134.37891 84.810547 L 160 72 L 132.53906 79.845703 A 40 40 0 0 0 123.67188 67.179688 L 160 19.5 L 145 19.5 z "
       id="path882"
       transform="translate(0,860.36216)" />
    <circle
       style="opacity:1;vector-effect:none;fill:#B1B5BD;fill-opacity:1;paint-order:stroke fill markers"
       id="path880"
       cx="96"
       cy="956.36218"
       r="35" />
    <ellipse
       style="opacity:1;vector-effect:none;fill:#979797;fill-opacity:1;stroke-width:1.15470064;paint-order:stroke fill markers"
       id="path3070"
       cx="96"
       cy="948.36218"
       rx="30"
       ry="25" />
    <path
       style="color:#000000;font-style:normal;font-variant:normal;font-weight:normal;font-stretch:normal;font-size:medium;line-height:normal;font-family:sans-serif;font-variant-ligatures:normal;font-variant-position:normal;font-variant-caps:normal;font-variant-numeric:normal;font-variant-alternates:normal;font-feature-settings:normal;text-indent:0;text-align:start;text-decoration:none;text-decoration-line:none;text-decoration-style:solid;text-decoration-color:#000000;letter-spacing:normal;word-spacing:normal;text-transform:none;writing-mode:lr-tb;direction:ltr;text-orientation:mixed;dominant-baseline:auto;baseline-shift:baseline;text-anchor:start;white-space:normal;shape-padding:0;clip-rule:nonzero;display:inline;overflow:visible;visibility:visible;opacity:1;isolation:auto;mix-blend-mode:normal;color-interpolation:sRGB;color-interpolation-filters:linearRGB;solid-color:#000000;solid-opacity:1;vector-effect:none;fill:#ececec;fill-opacity:1;fill-rule:nonzero;stroke:none;stroke-width:4;stroke-linecap:round;stroke-linejoin:round;stroke-miterlimit:4;stroke-dasharray:none;stroke-dashoffset:0;stroke-opacity:1;color-rendering:auto;image-rendering:auto;shape-rendering:auto;text-rendering:auto;enable-background:accumulate"
       d="m 95.999993,926.36157 c -4.084551,0 -9.225272,1.0383 -13.585938,2.91406 -2.180332,0.93788 -4.163717,2.08023 -5.708984,3.53711 -1.545267,1.45688 -2.705078,3.3518 -2.705078,5.54883 0,5.38931 1,13.00083 3.798828,13.43359 1.600586,-0.21638 9.886474,-3.40786 18.201172,-3.43276 8.314697,-0.0249 16.658207,3.11679 18.316407,3.23358 3.68359,-0.23358 3.68359,-7.86585 3.68359,-13.23437 0,-2.34745 -1.10949,-4.40795 -2.67773,-5.94336 -1.56825,-1.53541 -3.58733,-2.66119 -5.78516,-3.53906 -4.39566,-1.7558 -9.541998,-2.51762 -13.537107,-2.51762 z"
       id="path3066"
       inkscape:connector-curvature="0"
       sodipodi:nodetypes="sssscscsccs" />
  </g>
  <style
     type="text/css"
     id="style853">
	.st0{fill:#FFFFFF;}
</style>
  <style
     type="text/css"
     id="style907">
	.st0{fill:#898989;}
	.st1{fill:#FFFFFF;}
</style>
</svg>

<svg xmlns="http://www.w3.org/2000/svg" id="svg2" width="192" height="192" version="1.1"><g id="layer1" transform="translate(0 -860.362)"><path id="rect985" d="M29.5 879.862h133c5.54 0 10 4.46 10 10v133c0 5.54-4.46 10-10 10h-133c-5.54 0-10-4.46-10-10v-133c0-5.54 4.46-10 10-10z" style="fill:#9ad2ff;fill-opacity:1;fill-rule:evenodd;stroke:none;stroke-opacity:1"/><path id="path882" d="m145 19.5-25.322 44.316a40 40 0 0 0-6.213-3.746L120 47l-8.969 11.959A40 40 0 0 0 96 56a40 40 0 0 0-2.408.084L85 20l1 33-9 3-22-36 18.338 43.092a40 40 0 0 0-11.48 12.162L20 52l38.887 29.166a40 40 0 0 0-1.73 5.479L20 82l32 10 1 5h3.035a40 40 0 0 0 3.469 15.248L20 132l42.5-14.166a40 40 0 0 0 9.37 10.006L40 172l36.518-41.082a40 40 0 0 0 7.414 3.205L82 147l4.842-12.105A40 40 0 0 0 96 136a40 40 0 0 0 6.465-.541L104.5 172.5h5l-6.133-37.209a40 40 0 0 0 7.201-2.043L130 172.5h10l-24.672-41.531a40 40 0 0 0 7.46-5.324l41.974 46.591a9.96 9.96 0 0 0 5.808-3.834l-46.984-43.46a40 40 0 0 0 10.656-17.235L160 112l-24.766-8.256A40 40 0 0 0 136 96a40 40 0 0 0-1.621-11.19L160 72l-27.46 7.846a40 40 0 0 0-8.868-12.666L160 19.5h-15z" style="fill:#54758c;fill-opacity:1" transform="translate(0 860.362)"/><circle id="path880" cx="96" cy="956.362" r="35" style="opacity:1;vector-effect:none;fill:#b1b5bd;fill-opacity:1;paint-order:stroke fill markers"/><ellipse id="path3070" cx="96" cy="948.362" rx="30" ry="25" style="opacity:1;vector-effect:none;fill:#979797;fill-opacity:1;stroke-width:1.15470064;paint-order:stroke fill markers"/><path id="path3066" d="M96 926.362c-4.085 0-9.225 1.038-13.586 2.914-2.18.938-4.164 2.08-5.709 3.537C75.16 934.27 74 936.165 74 938.362c0 5.389 1 13 3.799 13.433 1.6-.216 9.886-3.408 18.201-3.433 8.315-.025 16.658 3.117 18.316 3.234C118 951.362 118 943.73 118 938.362c0-2.348-1.11-4.408-2.678-5.944-1.568-1.535-3.587-2.66-5.785-3.539-4.396-1.756-9.542-2.517-13.537-2.517z" style="color:#000;font-style:normal;font-variant:normal;font-weight:400;font-stretch:normal;font-size:medium;line-height:normal;font-family:sans-serif;font-variant-ligatures:normal;font-variant-position:normal;font-variant-caps:normal;font-variant-numeric:normal;font-variant-alternates:normal;font-feature-settings:normal;text-indent:0;text-align:start;text-decoration:none;text-decoration-line:none;text-decoration-style:solid;text-decoration-color:#000;letter-spacing:normal;word-spacing:normal;text-transform:none;writing-mode:lr-tb;direction:ltr;text-orientation:mixed;dominant-baseline:auto;baseline-shift:baseline;text-anchor:start;white-space:normal;shape-padding:0;clip-rule:nonzero;display:inline;overflow:visible;visibility:visible;opacity:1;isolation:auto;mix-blend-mode:normal;color-interpolation:sRGB;color-interpolation-filters:linearRGB;solid-color:#000;solid-opacity:1;vector-effect:none;fill:#ececec;fill-opacity:1;fill-rule:nonzero;stroke:none;stroke-width:4;stroke-linecap:round;stroke-linejoin:round;stroke-miterlimit:4;stroke-dasharray:none;stroke-dashoffset:0;stroke-opacity:1;color-rendering:auto;image-rendering:auto;shape-rendering:auto;text-rendering:auto;enable-background:accumulate"/></g><style id="style853" type="text/css">.st0{fill:#898989}.st1{fill:#fff}</style></svg>
